X: 404
T: Sparve Lille
O: Värmland
R: Polska
M: 3/4
K: D
L: 1/8
a2 fa fa | ag (3efg (3efg | a2 fd e>c | d>e f>a (3^gfg |
a2 fa fa | ag (3efg (3efg | a2 fd e>c | (3ABc d4 :|
|: A2 df e>c | d2 f>a (3^gfg | a2 fd e>c | d2 ef d>c |
   A2 df e>c | d2 f>a (3^gfg | a2 fd e>c | (3ABc d4 :|
(:musicend:)

(:music:)
